X:1
T:Title
%%score { ( 1 3 ) | ( 2 4 ) }
L:1/8
M:4/4
K:G
V:1 treble nm="Grand Piano"
V:3 treble 
V:2 bass 
V:4 bass 
V:1
 z8[Q:1/4=92] |[M:3/4] G2 F E2 D | F2 E D2 D | .D2 F A2 G | G3 F2 D | [EFc]2 [DFB] [CFA]2 [EFc] | %6
 B2 A G2 G | F2 E ^D2 E | [CDFB]3 [CDFA]2 [CD] | G2 F E2 D | F2 E D2 D | .D2 F A2 G | B3 B2 B | %13
 [E^Ge]2 [EGd] [EAc]2 [EAc] | B2 A G2 E | DE F [EFc]2 [FB] | [CDFA]3 [B,DG]3 |[M:1/8] z | %18
[M:3/4] B,2- [B,-D] [B,-E]2 [B,D] | C2- [C-D] [C-E]2 [CD] | C2- [CF] c2 c | [Ec]3 B2 B | %22
 B2 A G2 G |[M:7/8] G2 F E3 E | %24
[M:3/4] DE F [EFc]2 [FB][Q:1/4=91][Q:1/4=89][Q:1/4=88][Q:1/4=86][Q:1/4=85][Q:1/4=83][Q:1/4=82][Q:1/4=81][Q:1/4=79][Q:1/4=78][Q:1/4=76][Q:1/4=75][Q:1/4=73][Q:1/4=72][Q:1/4=70] | %25
 [CDFA]3 [B,DG]3 |] %26
V:2
 z4 z2 z D |[M:3/4] G,,2 D, G,2 D, | z2 z B,3 | z E D, G,2 D, | A,,2 D, A,2 D, | A,,2 D, F,2 D, | %6
 B,,2 F, [B,E]2- [E,B,E] | A,,2 E, G,2 E, | D,2 F, A,2 F, | G,,2 D, G,2 D, | z2 z .G,3 | %11
 z E D, G,2 D, | B,,2 F, A,2 F, | E,2 ^G, A,2 A,, | B,,2 ^D, [E,B,E]2 [C,G,_B,] | %15
 .[D,G,B,]2 z [D,F,] z D | D,,2 F,, G,,3 |[M:1/8] D |[M:3/4] G,,2 D, G,2 D, | A,,2 D, F,2 D, | %20
 z2 z [EF]3 | G,,2 D, G,2 D, | z2 z [B,E]3 |[M:7/8] B,,3 [C,G,C]3 [^C,G,_B,] | %24
[M:3/4] .[D,G,B,]2 z [D,F,] z D | D,,2 F,, G,,3 |] %26
V:3
 x8 |[M:3/4] B,6 | _B,4 z2 | B,6 | C6 | x6 | [B,^DF]4 z2 | [A,^C]6 | x6 | B,6 | _B,4 z2 | B,6 | %12
 [B,^DF]6 | x6 | [^DF]4 z2 | x6 | x6 |[M:1/8] x |[M:3/4] D2 z2 z2 | D2 z2 z2 | D2 z2 z2 | %21
 z2 z [DG]3 | [^DF]4 z2 |[M:7/8] [A,^D]3 z z z2 |[M:3/4] x6 | x6 |] %26
V:4
 x8 |[M:3/4] x6 | G,,2 ^C, G,2 D, | G,,2 z2 z2 | x6 | x6 | z2 z .G,3 | x6 | x6 | x6 | %10
 G,,2 C, B,2- [D,B,] | G,,2 z2 z2 | x6 | x6 | x6 | x6 | x6 |[M:1/8] x |[M:3/4] x6 | x6 | %20
 A,,2 D, F,2 D, | x6 | B,,2 ^D, E,2 G, |[M:7/8] x7 |[M:3/4] x6 | x6 |] %26

